!!!!SEGMENT: pl-sa--131-a-iii-31--003_luna-georgius--vesperae-beatus-vir.krn
!!!cenid: 17xx:491
!!!COM: Luna, Georgius
!!!COM-rismid: pe41010079
!!!CDT:
!!!CNT:
!!!OPR: Vesperae
!!!OTL: Beatus vir
!!!OMV: 003
!!!PDT:
!!!AGN: Sacred; Vespers
!!!SMS-siglum: PL-SA
!!!SMS-shelfmark: 131/A III 31
!!!SMS-shelfwork: 001-003 M
!!!SMS-variant:
!!!SMS-altvar:
!!!NIFC-rismid: 1001070694
!!!URL-scan: http://bc.bdsandomierz.pl/dlibra/publication/1488/edition/1456/content
!!!ONB-nifc: UWAGA: części Vesperae: Dixit Dominus, Confitebor, Beatus vir, Laudate pueri, Laudate Dominum, Magnificat
!!!AIN: 1 empty 1 tenor 2 tromp 2 violn 1 vox
!!!key:
**kern	**kern	**kern	**kernyy	**text	**kern	**kern	**text	**kern	**kern
*part8	*part7	*part6	*part5	*part5	*part4	*part3	*part3	*part2	*part1
*staff8	*staff7	*staff6	*staff5	*staff5	*staff4	*staff3	*staff3	*staff2	*staff1
*group4	*group3	*group3	*group2	*	*group2	*group2	*	*group1	*group1
*Iempty	*Ivioln	*Ivioln	*	*	*Itenor	*Ivox	*	*Itromp	*Itromp
*I"Fondamento	*I"Violino Secundo	*I"Violino Primo	*I"Baſso	*	*I"Tenore	*I"Canto	*	*I"Tromba Secunda ex C.	*I"Tromba Prima ex C:
*I'Fond.	*I'V-no II	*I'V-no I	*I'B.	*	*I'T.	*I'C.	*	*I'Tr-ba II	*I'Tr-ba I
*clefF4	*clefG2	*clefG2	*clefF4	*	*clefC4	*clefC1	*	*clefG2	*clefG2
*Trd0c0	*	*	*	*	*	*	*	*	*
*k[]	*k[]	*k[]	*k[]	*	*k[]	*k[]	*	*k[]	*k[]
*C:	*C:	*C:	*C:	*	*C:	*C:	*	*C:	*C:
*M2/4	*M2/4	*M2/4	*M2/4	*	*M2/4	*M2/4	*	*M2/4	*M2/4
!LO:TX:a:t=Wybrakowane źródło	!LO:TX:a:t=Tacet lub wybrakowane źródło	!LO:TX:a:t=Tacet lub wybrakowane źródło	!LO:TX:b:t=Beatus	!	!LO:TX:a:t=Tacet lub wybrakowane źródło	!	!	!	!LO:TX:a:t=All(egr)o'
8ryy	8ryy	8ryy	8r	.	8ryy	8r	.	8r	8r
=1	=1	=1	=1	=1	=1	=1	=1	=1	=1
!	!	!	!LO:N:vis=00	!	!	!LO:N:vis=00	!	!	!
2ryy	2ryy	2ryy	0r	.	2ryy	0r	.	4ee\	4gg\
.	.	.	.	.	.	.	.	4ff\	4aa\
=2	=2	=2	=2	=2	=2	=2	=2	=2	=2
2ryy	2ryy	2ryy	.	.	2ryy	.	.	4ee\	4gg\
.	.	.	.	.	.	.	.	8r	8r
.	.	.	.	.	.	.	.	8dd\	8ff\
=3	=3	=3	=3	=3	=3	=3	=3	=3	=3
2ryy	2ryy	2ryy	.	.	2ryy	.	.	4cc\	4ee\
.	.	.	.	.	.	.	.	8r	8r
.	.	.	.	.	.	.	.	8g/	8dd\
=4	=4	=4	=4	=4	=4	=4	=4	=4	=4
2ryy	2ryy	2ryy	.	.	2ryy	.	.	8cc\L	8ee\L
.	.	.	.	.	.	.	.	16cc\L	16ee\L
.	.	.	.	.	.	.	.	16cc\JJ	16ee\JJ
.	.	.	.	.	.	.	.	8cc\L	8ee\L
.	.	.	.	.	.	.	.	8cc\J	8ee\J
=5	=5	=5	=5	=5	=5	=5	=5	=5	=5
!	!	!	!LO:N:vis=00	!	!	!LO:N:vis=00	!	!	!
2ryy	2ryy	2ryy	0r	.	2ryy	0r	.	4g/	4dd\
.	.	.	.	.	.	.	.	4r	4r
=6	=6	=6	=6	=6	=6	=6	=6	=6	=6
2ryy	2ryy	2ryy	.	.	2ryy	.	.	4dd\	4ff\
.	.	.	.	.	.	.	.	4cc\	4ee\
=7	=7	=7	=7	=7	=7	=7	=7	=7	=7
2ryy	2ryy	2ryy	.	.	2ryy	.	.	4g/	4dd\
.	.	.	.	.	.	.	.	4r	4r
=8	=8	=8	=8	=8	=8	=8	=8	=8	=8
2ryy	2ryy	2ryy	.	.	2ryy	.	.	4dd\	4ff\
.	.	.	.	.	.	.	.	4cc\	4ee\
=9	=9	=9	=9	=9	=9	=9	=9	=9	=9
!	!	!	!LO:N:vis=00	!	!	!LO:N:vis=00	!	!	!
2ryy	2ryy	2ryy	0r	.	2ryy	0r	.	4ff\	4aa\
.	.	.	.	.	.	.	.	4r	4r
=10	=10	=10	=10	=10	=10	=10	=10	=10	=10
2ryy	2ryy	2ryy	.	.	2ryy	.	.	4ee\	4gg\
.	.	.	.	.	.	.	.	4r	4r
=11	=11	=11	=11	=11	=11	=11	=11	=11	=11
2ryy	2ryy	2ryy	.	.	2ryy	.	.	4dd\	4ff\
.	.	.	.	.	.	.	.	4r	4r
=12	=12	=12	=12	=12	=12	=12	=12	=12	=12
2ryy	2ryy	2ryy	.	.	2ryy	.	.	8cc\L	8ee\L
.	.	.	.	.	.	.	.	8cc\	8ee\J
.	.	.	.	.	.	.	.	8g\	8dd\L
.	.	.	.	.	.	.	.	8g\J	8dd\J
=13	=13	=13	=13	=13	=13	=13	=13	=13	=13
!	!	!	!LO:N:vis=00	!	!	!	!	!	!
2ryy	2ryy	2ryy	0r	.	2ryy	4r	.	4cc\	4ee\
.	.	.	.	.	.	8r	.	4r	4r
.	.	.	.	.	.	8gg\	Be-	.	.
=14	=14	=14	=14	=14	=14	=14	=14	=14	=14
!	!	!	!	!	!	!	!	!LO:vis=00	!LO:vis=00
2ryy	2ryy	2ryy	.	.	2ryy	4cc\	-at-	0r	0r
.	.	.	.	.	.	4aa\	-uſ	.	.
=15	=15	=15	=15	=15	=15	=15	=15	=15	=15
.	.	.	.	.	.	8qqff/	.	.	.
2ryy	2ryy	2ryy	.	.	2ryy	4.gg\	vir	.	.
.	.	.	.	.	.	8ff\	qui	.	.
=16	=16	=16	=16	=16	=16	=16	=16	=16	=16
2ryy	2ryy	2ryy	.	.	2ryy	8ee\	ti-	.	.
.	.	.	.	.	.	16dd\LL	-met	.	.
.	.	.	.	.	.	16cc\JJ	.	.	.
.	.	.	.	.	.	16b\LL	Do-	.	.
.	.	.	.	.	.	16a\JJ	.	.	.
.	.	.	.	.	.	16g\LL	-mi-	.	.
.	.	.	.	.	.	16f\JJ	.	.	.
=17	=17	=17	=17	=17	=17	=17	=17	=17	=17
!	!	!	!LO:N:vis=00	!	!	!	!	!	!
2ryy	2ryy	2ryy	0r	.	2ryy	4e/	-nu(m)	.	.
.	.	.	.	.	.	8r	.	.	.
.	.	.	.	.	.	8cc\	in	.	.
=18	=18	=18	=18	=18	=18	=18	=18	=18	=18
!	!	!	!	!	!	!	!	!LO:vis=00	!LO:vis=00
2ryy	2ryy	2ryy	.	.	2ryy	16dd\LL	.	0r	0r
.	.	.	.	.	.	16b\JJ	.	.	.
.	.	.	.	.	.	8cc\	man-	.	.
.	.	.	.	.	.	16dd\LL	-da-	.	.
.	.	.	.	.	.	16b\JJ	.	.	.
.	.	.	.	.	.	16cc\LL	-tiſ	.	.
.	.	.	.	.	.	16gg\JJ	.	.	.
=19	=19	=19	=19	=19	=19	=19	=19	=19	=19
2ryy	2ryy	2ryy	.	.	2ryy	4ff\	e-	.	.
.	.	.	.	.	.	4ee\	-juſ	.	.
=20	=20	=20	=20	=20	=20	=20	=20	=20	=20
2ryy	2ryy	2ryy	.	.	2ryy	16dd\LL	in	.	.
.	.	.	.	.	.	16b\JJ	.	.	.
.	.	.	.	.	.	8cc\	man-	.	.
.	.	.	.	.	.	16dd\LL	-da-	.	.
.	.	.	.	.	.	16b\JJ	.	.	.
.	.	.	.	.	.	16cc\LL	-tiſ	.	.
.	.	.	.	.	.	16gg\JJ	.	.	.
=21	=21	=21	=21	=21	=21	=21	=21	=21	=21
!	!	!	!LO:N:vis=0	!	!	!	!	!	!
2ryy	2ryy	2ryy	1r	.	2ryy	4ff\	e-	.	.
.	.	.	.	.	.	4ee\	-juſ	.	.
=22	=22	=22	=22	=22	=22	=22	=22	=22	=22
!	!	!	!	!	!	!	!	!LO:vis=0	!LO:vis=0
2ryy	2ryy	2ryy	.	.	2ryy	8dd\	vo-	1r	1r
.	.	.	.	.	.	4a\	-let	.	.
!	!	!	!	!	!	!LO:TX:a:t=t	!	!	!
.	.	.	.	.	.	8b\	ni-	.	.
=23	=23	=23	=23	=23	=23	=23	=23	=23	=23
2ryy	2ryy	2ryy	4r	.	2ryy	4cc\	-miſ	.	.
.	.	.	8r	.	.	8r	.	.	.
.	.	.	8c\	Po-	.	8gg\	po-	.	.
!	!	!	!	!	!	!	!	!LO:LB:g=original	!
=24	=24	=24	=24	=24	=24	=24	=24	=24	=24
2ryy	2ryy	2ryy	4d\	-tenſ	2ryy	4cc\	-tenſ	4ee\	4gg\
.	.	.	4F\	in	.	4aa\	in	4ff\	4aa\
=25	=25	=25	=25	=25	=25	=25	=25	=25	=25
2ryy	2ryy	2ryy	8C\	terra	2ryy	8gg\	ter-	4ee\	4gg\
.	.	.	8D\	.	.	8gg\	-ra	.	.
.	.	.	8E\	erit	.	8gg\	e-	8r	8r
.	.	.	8G\	.	.	8ff\	-rit	8dd\	8ff\
!	!	!	!	!	!	!	!	!	!LO:LB:g=original
=26	=26	=26	=26	=26	=26	=26	=26	=26	=26
2ryy	2ryy	2ryy	8c\	se_men	2ryy	8ee\	se-	4cc\	4ee\
.	.	.	8F\	.	.	16dd\LL	-men	.	.
.	.	.	.	.	.	16cc\JJ	.	.	.
!	!	!	!LO:TX:a:t=problem:mixed beam	!	!	!LO:LB:g=original	!	!	!
.	.	.	8G\L	jus-	.	16b\LL	e-	8r	8r
.	.	.	.	.	.	16a\	.	.	.
.	.	.	8GG/J	.	.	16g\	.	8g/	8dd\
.	.	.	.	.	.	16f\JJ	.	.	.
=27	=27	=27	=27	=27	=27	=27	=27	=27	=27
2ryy	2ryy	2ryy	4C/	-tuſ	2ryy	4e/	-juſ	4cc\	4ee\
.	.	.	8G\	Ge-	.	8dd\	ge-	8g/L	8dd\L
.	.	.	8G\	-ne-	.	8dd\	-ne-	8g/J	8dd\J
=28	=28	=28	=28	=28	=28	=28	=28	=28	=28
2ryy	2ryy	2ryy	8C\	-ra-	2ryy	8ee\	-ra-	8cc\L	8ee\L
.	.	.	8D\	-tio	.	8ee\	-tio	16cc\L	16ee\L
.	.	.	.	.	.	.	.	16cc\JJ	16ee\JJ
.	.	.	8E\	rec-	.	8ee\	.	8cc\L	8ee\L
.	.	.	8F#X\	-to-	.	8ee\	rec-	8cc\J	8ee\J
=29	=29	=29	=29	=29	=29	=29	=29	=29	=29
2ryy	2ryy	2ryy	8G\	-rum	2ryy	8ee\	-to-	4g/	4dd\
.	.	.	8G\	.	.	8dd\	-rum	.	.
.	.	.	8r	.	.	8r	.	8e/L	8e/L
.	.	.	8G#X\	Be-	.	8b\	Be-	8e/J	8e/J
=30	=30	=30	=30	=30	=30	=30	=30	=30	=30
2ryy	2ryy	2ryy	8A\L	-ne-	2ryy	4cc\	-ne-	8e/L	8e/L
.	.	.	8B\J	.	.	.	.	16e/L	16e/L
.	.	.	.	.	.	.	.	16e/JJ	16e/JJ
.	.	.	8c\L	-di-	.	4cc\	-di-	8e/L	8e/L
.	.	.	8d\J	.	.	.	.	8e/J	8e/J
!	!	!	!LO:LB:g=original	!	!	!	!	!	!
=31	=31	=31	=31	=31	=31	=31	=31	=31	=31
2ryy	2ryy	2ryy	8e\	-ce-	2ryy	8cc\	-ce-	4e/	4e/
.	.	.	8E\	-tur	.	8b\	-tur	.	.
.	.	.	8r	.	.	8r	.	4r	4r
.	.	.	8E\	Be-	.	8g\	Be-	.	.
=32	=32	=32	=32	=32	=32	=32	=32	=32	=32
!	!	!	!	!	!	!	!	!	!LO:TX:a:t=problem:niewyraźny zapis
2ryy	2ryy	2ryy	8F\L	-ne-	2ryy	4a\	-ne-	8cc\L	8cc\L
.	.	.	8Gn\J	-di-	.	.	.	16cc\L	16cc\L
.	.	.	.	.	.	.	.	16cc\JJ	16cc\JJ
.	.	.	8A\L	.	.	4a\	-di-	8cc\L	8cc\L
.	.	.	8B\J	-ce-	.	.	.	8cc\J	8cc\J
=33	=33	=33	=33	=33	=33	=33	=33	=33	=33
2ryy	2ryy	2ryy	8c\	-tur	2ryy	8a\	-ce-	4cc\	4cc\
.	.	.	8C/	.	.	8g\	-tur	.	.
.	.	.	4r	.	.	4r	.	4r	4r
=34	=34	=34	=34	=34	=34	=34	=34	=34	=34
*	*	*	*	*	*	*2\right	*	*	*
2ryy	2ryy	2ryy	8B\L	Be-	2ryy	2dd\	Be-	2r	2r
.	.	.	8A\J	.	.	.	.	.	.
.	.	.	8G#X\	-ne-	.	.	.	.	.
.	.	.	8E\	-di-	.	.	.	.	.
=35	=35	=35	=35	=35	=35	=35	=35	=35	=35
2ryy	2ryy	2ryy	8A\L	-ce-	2ryy	8cc\	-ne-	8e/L	8e/L
.	.	.	8D\J	.	.	16b\LL	-di-	16e/L	16e/L
.	.	.	.	.	.	16a\JJ	-ce-	16e/JJ	16e/JJ
!	!	!	!	!	!	!LO:TX:a:t=t	!	!	!
.	.	.	4E\	.	.	4b\	.	8e/L	8e/L
.	.	.	.	.	.	.	.	8e/J	8e/J
=36	=36	=36	=36	=36	=36	=36	=36	=36	=36
2ryy	2ryy	2ryy	4AA/	-tur	2ryy	4a\	-tur	4e/	4e/
.	.	.	4r	.	.	4r	.	4r	4r
!	!	!	!	!	!	!	!	!LO:LB:g=original	!
=37	=37	=37	=37	=37	=37	=37	=37	=37	=37
!	!	!	!LO:vis=00	!	!	!LO:vis=00	!	!LO:vis=00	!LO:vis=00
2ryy	2ryy	2ryy	0r	.	2ryy	0r	.	0r	0r
=38	=38	=38	=38	=38	=38	=38	=38	=38	=38
2ryy	2ryy	2ryy	.	.	2ryy	.	.	.	.
=39	=39	=39	=39	=39	=39	=39	=39	=39	=39
2ryy	2ryy	2ryy	.	.	2ryy	.	.	.	.
=40	=40	=40	=40	=40	=40	=40	=40	=40	=40
2ryy	2ryy	2ryy	.	.	2ryy	.	.	.	.
=41	=41	=41	=41	=41	=41	=41	=41	=41	=41
!	!	!	!LO:vis=00	!	!	!LO:vis=00	!	!LO:vis=00	!LO:vis=00
2ryy	2ryy	2ryy	0r	.	2ryy	0r	.	0r	0r
=42	=42	=42	=42	=42	=42	=42	=42	=42	=42
2ryy	2ryy	2ryy	.	.	2ryy	.	.	.	.
=43	=43	=43	=43	=43	=43	=43	=43	=43	=43
2ryy	2ryy	2ryy	.	.	2ryy	.	.	.	.
=44	=44	=44	=44	=44	=44	=44	=44	=44	=44
2ryy	2ryy	2ryy	.	.	2ryy	.	.	.	.
=45	=45	=45	=45	=45	=45	=45	=45	=45	=45
!	!	!	!LO:vis=00	!	!	!LO:vis=00	!	!LO:vis=00	!LO:vis=00
2ryy	2ryy	2ryy	0r	.	2ryy	0r	.	0r	0r
=46	=46	=46	=46	=46	=46	=46	=46	=46	=46
2ryy	2ryy	2ryy	.	.	2ryy	.	.	.	.
=47	=47	=47	=47	=47	=47	=47	=47	=47	=47
2ryy	2ryy	2ryy	.	.	2ryy	.	.	.	.
=48	=48	=48	=48	=48	=48	=48	=48	=48	=48
2ryy	2ryy	2ryy	.	.	2ryy	.	.	.	.
=49	=49	=49	=49	=49	=49	=49	=49	=49	=49
!	!	!	!LO:vis=0	!	!	!LO:vis=0	!	!LO:vis=0	!LO:vis=0
2ryy	2ryy	2ryy	1r	.	2ryy	1r	.	1r	1r
=50	=50	=50	=50	=50	=50	=50	=50	=50	=50
2ryy	2ryy	2ryy	.	.	2ryy	.	.	.	.
=51	=51	=51	=51	=51	=51	=51	=51	=51	=51
2ryy	2ryy	2ryy	4r	.	2ryy	4r	.	4r	4r
.	.	.	8r	.	.	8r	.	8r	8r
.	.	.	8G\	Ex-	.	8dd\	Ex-	8g/	8dd\
=52	=52	=52	=52	=52	=52	=52	=52	=52	=52
2ryy	2ryy	2ryy	8C\	-ortum	2ryy	8ee\	-ortu(m)	8cc\L	8ee\L
.	.	.	8D\	.	.	8ee\	.	8cc\	8ee\
.	.	.	8E\	est	.	8ee\	eſt	8cc\	8ee\
.	.	.	8F\	in	.	8ee\	in	8cc\J	8ee\J
=53	=53	=53	=53	=53	=53	=53	=53	=53	=53
2ryy	2ryy	2ryy	8G\	te-	2ryy	8dd\	te-	8g/L	8dd\L
.	.	.	8A\	-ne-	.	8dd\	-ne-	8g/	8dd\
.	.	.	8B\L	-briſ	.	4dd\	-briſ	8g/	8dd\
.	.	.	8G\J	.	.	.	.	8g/J	8dd\J
!	!	!	!	!	!	!	!	!	!LO:LB:g=original
=54	=54	=54	=54	=54	=54	=54	=54	=54	=54
2ryy	2ryy	2ryy	8A\	lu-	2ryy	8cc\	lu-	8dd\L	8dd\L
.	.	.	8G\	-men	.	8cc\	-men	8dd\	8dd\
!	!	!	!LO:LB:g=original	!	!	!	!	!	!
.	.	.	8F\L	rec-	.	4cc\	rec-	8dd\	8dd\
.	.	.	8D\J	-tiſ	.	.	.	8dd\J	8dd\J
!	!	!	!	!	!	!LO:LB:g=original	!	!	!
=55	=55	=55	=55	=55	=55	=55	=55	=55	=55
2ryy	2ryy	2ryy	4G\	mi-	2ryy	4b\	-tiſ	8g/L	8dd\L
.	.	.	.	.	.	.	.	16g/L	16dd\L
.	.	.	.	.	.	.	.	16g/JJ	16dd\JJ
.	.	.	8r	.	.	8r	.	4g/	4dd\
.	.	.	8C\	-se-	.	8g\	mi-	.	.
=56	=56	=56	=56	=56	=56	=56	=56	=56	=56
2ryy	2ryy	2ryy	8Fn\	-ri-	2ryy	8a\	-se-	8cc\L	8cc\L
.	.	.	8G\	-cors	.	8a\	-rico-	8cc\	8cc\
.	.	.	8A\	.	.	8a\	-rſ	8cc\	8cc\
.	.	.	8F\	et	.	8a\	et	8cc\J	8cc\J
=57	=57	=57	=57	=57	=57	=57	=57	=57	=57
2ryy	2ryy	2ryy	8C\	mi-	2ryy	8g\	mi-	8cc\L	8cc\L
.	.	.	8D\	-ser-	.	8g\	-se-	8cc\	8cc\
.	.	.	8E\	-a-	.	8g\	-ra-	8cc\	8cc\
.	.	.	8C\	-tor	.	8g\	-tor	8cc\J	8cc\J
=58	=58	=58	=58	=58	=58	=58	=58	=58	=58
2ryy	2ryy	2ryy	8D/L	et	2ryy	4f/	et	8g/L	8dd\L
.	.	.	8C/J	jus-	.	.	.	8g/	8dd\
.	.	.	8BB/L	.	.	4f/	ju-	8g/	8dd\
.	.	.	8GG/J	.	.	.	.	8g/J	8dd\J
=59	=59	=59	=59	=59	=59	=59	=59	=59	=59
2ryy	2ryy	2ryy	4C/	-tus	2ryy	4e/	-ſtuſ	8cc\L	8ee\L
.	.	.	.	.	.	.	.	16cc\L	16ee\L
.	.	.	.	.	.	.	.	16cc\JJ	16ee\JJ
.	.	.	8r	.	.	8r	.	8cc\L	8ee\L
.	.	.	8G\	et	.	8dd\	et	8g\J	8dd\J
=60	=60	=60	=60	=60	=60	=60	=60	=60	=60
2ryy	2ryy	2ryy	4c\	mise-	2ryy	4ee\	mi-	4cc\	4ee\
.	.	.	4B\	.	.	4dd\	-se-	4g/	4dd\
=61	=61	=61	=61	=61	=61	=61	=61	=61	=61
2ryy	2ryy	2ryy	4c\	-ra-	2ryy	8ee\L	-ra-	4cc\	4ee\
.	.	.	.	.	.	8ff#X\J	-tor	.	.
.	.	.	8B\	-tor	.	8gg\	.	4r	4r
.	.	.	8c\	et	.	8cc\	et	.	.
=62	=62	=62	=62	=62	=62	=62	=62	=62	=62
2ryy	2ryy	2ryy	4d\	jus-	2ryy	4b\	ju-	4dd\	4dd\
.	.	.	4D/	.	.	4a\	.	4dd\	4dd\
=63	=63	=63	=63	=63	=63	=63	=63	=63	=63
2ryy	2ryy	2ryy	4G\	-tus	2ryy	4g\	-stus	4g/	4dd\
.	.	.	4r	.	.	4r	.	4r	4r
=64	=64	=64	=64	=64	=64	=64	=64	=64	=64
!	!	!	!LO:N:vis=00	!	!	!LO:N:vis=00	!	!LO:vis=00	!LO:vis=00
2ryy	2ryy	2ryy	0r	.	2ryy	0r	.	0r	0r
=65	=65	=65	=65	=65	=65	=65	=65	=65	=65
2ryy	2ryy	2ryy	.	.	2ryy	.	.	.	.
=66	=66	=66	=66	=66	=66	=66	=66	=66	=66
2ryy	2ryy	2ryy	.	.	2ryy	.	.	.	.
=67	=67	=67	=67	=67	=67	=67	=67	=67	=67
2ryy	2ryy	2ryy	.	.	2ryy	.	.	.	.
=68	=68	=68	=68	=68	=68	=68	=68	=68	=68
!	!	!	!LO:N:vis=00	!	!	!	!	!LO:vis=00	!LO:vis=00
2ryy	2ryy	2ryy	0r	.	2ryy	4r	.	0r	0r
.	.	.	.	.	.	8r	.	.	.
!	!	!	!	!	!	!LO:TX:a:t=Solo	!	!	!
.	.	.	.	.	.	8dd\	Ju-	.	.
=69	=69	=69	=69	=69	=69	=69	=69	=69	=69
2ryy	2ryy	2ryy	.	.	2ryy	8ee\	-cun-	.	.
.	.	.	.	.	.	8dd\	-duſ	.	.
.	.	.	.	.	.	4cc\	ho-	.	.
=70	=70	=70	=70	=70	=70	=70	=70	=70	=70
2ryy	2ryy	2ryy	.	.	2ryy	4b\	-mo	.	.
.	.	.	.	.	.	4r	.	.	.
=71	=71	=71	=71	=71	=71	=71	=71	=71	=71
2ryy	2ryy	2ryy	.	.	2ryy	4gg\	qui	.	.
.	.	.	.	.	.	8ff#X\	mi-	.	.
.	.	.	.	.	.	8ee\	-se-	.	.
=72	=72	=72	=72	=72	=72	=72	=72	=72	=72
!	!	!	!LO:N:vis=00	!	!	!	!	!LO:vis=00	!LO:vis=00
2ryy	2ryy	2ryy	0r	.	2ryy	4dd\	-re-	0r	0r
.	.	.	.	.	.	8cc\	-tur	.	.
.	.	.	.	.	.	8b\	et	.	.
=73	=73	=73	=73	=73	=73	=73	=73	=73	=73
2ryy	2ryy	2ryy	.	.	2ryy	4cc\	et	.	.
.	.	.	.	.	.	4b\	co(m)mo-	.	.
=74	=74	=74	=74	=74	=74	=74	=74	=74	=74
2ryy	2ryy	2ryy	.	.	2ryy	4a\	-dat	.	.
.	.	.	.	.	.	8r	.	.	.
.	.	.	.	.	.	8dd\	diſ-	.	.
!	!	!	!	!	!	!LO:LB:g=original	!	!	!
=75	=75	=75	=75	=75	=75	=75	=75	=75	=75
2ryy	2ryy	2ryy	.	.	2ryy	8dd\L	-po-	.	.
.	.	.	.	.	.	8cc#X\J	-net	.	.
.	.	.	.	.	.	8cc#\	.	.	.
.	.	.	.	.	.	8ee\	ser-	.	.
=76	=76	=76	=76	=76	=76	=76	=76	=76	=76
!	!	!	!LO:N:vis=00	!	!	!	!	!LO:vis=00	!LO:vis=00
2ryy	2ryy	2ryy	0r	.	2ryy	8ee\L	-mo-	0r	0r
.	.	.	.	.	.	8dd\J	-neſ	.	.
.	.	.	.	.	.	4dd\	.	.	.
=77	=77	=77	=77	=77	=77	=77	=77	=77	=77
2ryy	2ryy	2ryy	.	.	2ryy	8ff#X\	suoſ	.	.
.	.	.	.	.	.	8ee\	in	.	.
.	.	.	.	.	.	8ee\	ju-	.	.
.	.	.	.	.	.	8gg\	-di-	.	.
=78	=78	=78	=78	=78	=78	=78	=78	=78	=78
2ryy	2ryy	2ryy	.	.	2ryy	8gg\	-cio	.	.
.	.	.	.	.	.	8ff#X\	.	.	.
.	.	.	.	.	.	4ff#\	.	.	.
=79	=79	=79	=79	=79	=79	=79	=79	=79	=79
2ryy	2ryy	2ryy	.	.	2ryy	4.ccn\	quia	.	.
.	.	.	.	.	.	16b\LL	.	.	.
.	.	.	.	.	.	16a\JJ	.	.	.
=80	=80	=80	=80	=80	=80	=80	=80	=80	=80
!	!	!	!LO:N:vis=00	!	!	!	!	!LO:vis=00	!LO:vis=00
2ryy	2ryy	2ryy	0r	.	2ryy	8b\L	in	0r	0r
.	.	.	.	.	.	8ee\J	.	.	.
.	.	.	.	.	.	4dd\	aeter-	.	.
=81	=81	=81	=81	=81	=81	=81	=81	=81	=81
2ryy	2ryy	2ryy	.	.	2ryy	4cc\	-num	.	.
.	.	.	.	.	.	8cc\	.	.	.
.	.	.	.	.	.	16b\LL	.	.	.
.	.	.	.	.	.	16a\JJ	non	.	.
=82	=82	=82	=82	=82	=82	=82	=82	=82	=82
2ryy	2ryy	2ryy	.	.	2ryy	8b\L	co-	.	.
.	.	.	.	.	.	8ee\J	-(m)mo-	.	.
.	.	.	.	.	.	8dd\L	.	.	.
.	.	.	.	.	.	8cc\J	.	.	.
=83	=83	=83	=83	=83	=83	=83	=83	=83	=83
2ryy	2ryy	2ryy	.	.	2ryy	4b\	-ve-	.	.
.	.	.	.	.	.	4a\	-bi-	.	.
!	!	!	!LO:LB:g=original	!	!	!	!	!	!
=84	=84	=84	=84	=84	=84	=84	=84	=84	=84
!	!	!	!	!	!	!	!	!LO:vis=00	!LO:vis=00
2ryy	2ryy	2ryy	4r	.	2ryy	4g\	-tur	0r	0r
.	.	.	8G\	In	.	8dd\	in	.	.
.	.	.	8G\	me-	.	8dd\	me-	.	.
=85	=85	=85	=85	=85	=85	=85	=85	=85	=85
2ryy	2ryy	2ryy	8c\L	-mo-	2ryy	4ee\	-mo-	.	.
.	.	.	8A\J	.	.	.	.	.	.
.	.	.	8d\L	-ri-	.	4ff#X\	-ri-	.	.
.	.	.	8c\J	.	.	.	.	.	.
=86	=86	=86	=86	=86	=86	=86	=86	=86	=86
2ryy	2ryy	2ryy	8B\L	-a	2ryy	4gg\	-a	.	.
.	.	.	8G\J	.	.	.	.	.	.
.	.	.	8r	.	.	4g/	ae-	.	.
.	.	.	8E\	ae-	.	.	.	.	.
=87	=87	=87	=87	=87	=87	=87	=87	=87	=87
!	!	!	!	!	!	!	!	!LO:TX:a:t=problem:źródło kończy się w tym miejscu	!LO:TX:a:t=problem:źródło kończy się w tym miejscu
2ryy	2ryy	2ryy	8F\L	-ter-	2ryy	(4a\	-ter-	.	.
.	.	.	8D\J	.	.	.	.	.	.
.	.	.	8G\L	.	.	4b\)	.	.	.
.	.	.	8F\J	.	.	.	.	.	.
!	!	!	!	!	!	!	!	!LO:PB:g=original	!LO:PB:g=original
=88	=88	=88	=88	=88	=88	=88	=88	=88	=88
2ryy	2ryy	2ryy	8E\	.	2ryy	4cc\	-na	2ryy	2ryy
.	.	.	8C\	-na	.	.	.	.	.
.	.	.	8r	.	.	4g\	e-	.	.
.	.	.	8E\	e-	.	.	.	.	.
=89	=89	=89	=89	=89	=89	=89	=89	=89	=89
2ryy	2ryy	2ryy	8F\L	.	2ryy	4a\	-rit	2ryy	2ryy
.	.	.	8E\J	.	.	.	.	.	.
.	.	.	8F\L	-rit	.	4ff\	.	.	.
.	.	.	8D\J	.	.	.	.	.	.
=90	=90	=90	=90	=90	=90	=90	=90	=90	=90
2ryy	2ryy	2ryy	8E\L	e-	2ryy	4g\	e-	2ryy	2ryy
.	.	.	8D\J	.	.	.	.	.	.
.	.	.	8E\L	.	.	4ee\	-rit	.	.
.	.	.	8C\J	-rit	.	.	.	.	.
=91	=91	=91	=91	=91	=91	=91	=91	=91	=91
2ryy	2ryy	2ryy	8D\L	jus-	2ryy	4f/	ju-	2ryy	2ryy
.	.	.	8C\	.	.	.	.	.	.
.	.	.	8D\	.	.	4dd\	.	.	.
.	.	.	8G\J	.	.	.	.	.	.
!	!	!	!	!	!	!LO:LB:g=original	!	!	!
=92	=92	=92	=92	=92	=92	=92	=92	=92	=92
2ryy	2ryy	2ryy	4C\	-tuſ	2ryy	4e/	-stus	2ryy	2ryy
.	.	.	8C\	ab	.	8cc\	ab	.	.
.	.	.	8D\	au-	.	8cc\	au-	.	.
=93	=93	=93	=93	=93	=93	=93	=93	=93	=93
2ryy	2ryy	2ryy	8E\	-di-	2ryy	8cc\	-di-	2ryy	2ryy
.	.	.	8G\	-ti-	.	8cc\	-tio-	.	.
.	.	.	8E\L	-o-	.	4b-X\	.	.	.
.	.	.	8C\J	.	.	.	.	.	.
=94	=94	=94	=94	=94	=94	=94	=94	=94	=94
2ryy	2ryy	2ryy	4F\	-ne	2ryy	4a\	-ne	2ryy	2ryy
.	.	.	8D\	ma-	.	8dd\	ma-	.	.
.	.	.	8E\	-la	.	8dd\	-la	.	.
!	!	!	!LO:LB:g=original	!	!	!	!	!	!
=95	=95	=95	=95	=95	=95	=95	=95	=95	=95
2ryy	2ryy	2ryy	8F#X\	non	2ryy	8dd\	non	2ryy	2ryy
.	.	.	8A\	ti-	.	8dd\	ti-	.	.
.	.	.	8F#\L	-me-	.	4cc\	-me-	.	.
.	.	.	8D\J	.	.	.	.	.	.
=96	=96	=96	=96	=96	=96	=96	=96	=96	=96
2ryy	2ryy	2ryy	4G\	-bit	2ryy	4b\	-bit	2ryy	2ryy
.	.	.	4G\	pa-	.	4dd\	pa-	.	.
=97	=97	=97	=97	=97	=97	=97	=97	=97	=97
2ryy	2ryy	2ryy	4c\	-ra-	2ryy	4ee\	-ra-	2ryy	2ryy
.	.	.	8c\	-tum	.	8ee\	-tum	.	.
.	.	.	16B\LL	cor	.	16dd\LL	.	.	.
.	.	.	16A\JJ	.	.	16cc\JJ	cor	.	.
=98	=98	=98	=98	=98	=98	=98	=98	=98	=98
2ryy	2ryy	2ryy	4B\	e-	2ryy	4dd\	e-	2ryy	2ryy
.	.	.	8B\	-juſ	.	8dd\	-juſ	.	.
.	.	.	16A\LL	spe-	.	16cc\LL	spe-	.	.
.	.	.	16G\JJ	.	.	16b\JJ	.	.	.
=99	=99	=99	=99	=99	=99	=99	=99	=99	=99
2ryy	2ryy	2ryy	4A\	-ra-	2ryy	4cc\	-ra-	2ryy	2ryy
.	.	.	8A\	-re	.	8cc\	-re	.	.
.	.	.	(16G\LL	in	.	16b\LL	in	.	.
.	.	.	16F#X\JJ)	.	.	16a\JJ	.	.	.
=100	=100	=100	=100	=100	=100	=100	=100	=100	=100
2ryy	2ryy	2ryy	4G\	Do-	2ryy	4b\	Do-	2ryy	2ryy
.	.	.	8G\L	.	.	8b\LL	.	.	.
.	.	.	16F#X\L	.	.	16a\	.	.	.
.	.	.	16E\JJ	.	.	16g\JJ	.	.	.
=101	=101	=101	=101	=101	=101	=101	=101	=101	=101
2ryy	2ryy	2ryy	4F\	.	2ryy	4a\	.	2ryy	2ryy
.	.	.	8F\L	.	.	8a\L	.	.	.
.	.	.	(16E\L	.	.	16g\L	.	.	.
.	.	.	16D\JJ)	.	.	16f#X\JJ	.	.	.
=102	=102	=102	=102	=102	=102	=102	=102	=102	=102
2ryy	2ryy	2ryy	4E\	.	2ryy	4g\	.	2ryy	2ryy
.	.	.	8E\	.	.	4g\	-mi-	.	.
.	.	.	16D\LL	-mi-	.	.	.	.	.
.	.	.	16C#X\JJ	.	.	.	.	.	.
=103	=103	=103	=103	=103	=103	=103	=103	=103	=103
2ryy	2ryy	2ryy	4D\	-no	2ryy	4f/	-no	2ryy	2ryy
.	.	.	4r	.	.	4r	.	.	.
=104	=104	=104	=104	=104	=104	=104	=104	=104	=104
!	!	!	!LO:N:vis=00	!	!	!	!	!	!
2ryy	2ryy	2ryy	0r	.	2ryy	4r	.	2ryy	2ryy
.	.	.	.	.	.	8gg\	con-	.	.
.	.	.	.	.	.	8gg\	-fir-	.	.
=105	=105	=105	=105	=105	=105	=105	=105	=105	=105
!	!	!	!	!	!	!LO:TX:a:t=problem:zapis prawdopodobny	!	!	!
2ryy	2ryy	2ryy	.	.	2ryy	8ee\	-ma-	2ryy	2ryy
.	.	.	.	.	.	8cc\	-tum	.	.
.	.	.	.	.	.	8cc\L	[eſt	.	.
.	.	.	.	.	.	16dd\L	cor]	.	.
.	.	.	.	.	.	16ee\JJ	.	.	.
!	!	!	!	!	!	!LO:LB:g=original	!	!	!
=106	=106	=106	=106	=106	=106	=106	=106	=106	=106
2ryy	2ryy	2ryy	.	.	2ryy	8ff\	ejuſ	2ryy	2ryy
.	.	.	.	.	.	8ff\	.	.	.
.	.	.	.	.	.	4ff\	non	.	.
=107	=107	=107	=107	=107	=107	=107	=107	=107	=107
2ryy	2ryy	2ryy	.	.	2ryy	8dd\	co(m)mo-	2ryy	2ryy
.	.	.	.	.	.	8b\	.	.	.
.	.	.	.	.	.	8b\	-ve-	.	.
.	.	.	.	.	.	16cc\LL	-bi-	.	.
.	.	.	.	.	.	16dd\JJ	.	.	.
=108	=108	=108	=108	=108	=108	=108	=108	=108	=108
!	!	!	!LO:N:vis=0	!	!	!	!	!	!
2ryy	2ryy	2ryy	1r	.	2ryy	4ee\	-tur	2ryy	2ryy
.	.	.	.	.	.	4ee\	donec	.	.
=109	=109	=109	=109	=109	=109	=109	=109	=109	=109
2ryy	2ryy	2ryy	.	.	2ryy	8cc\	.	2ryy	2ryy
.	.	.	.	.	.	8a\	de-	.	.
.	.	.	.	.	.	8a\	-spi-	.	.
.	.	.	.	.	.	16b\LL	-ciat	.	.
.	.	.	.	.	.	16cc\JJ	.	.	.
=110	=110	=110	=110	=110	=110	=110	=110	=110	=110
2ryy	2ryy	2ryy	2r	.	2ryy	4dd\	fini-	2ryy	2ryy
.	.	.	.	.	.	8dd\	.	.	.
.	.	.	.	.	.	8cc\	.	.	.
!	!	!	!LO:LB:g=original	!	!	!	!	!	!
=111	=111	=111	=111	=111	=111	=111	=111	=111	=111
2ryy	2ryy	2ryy	4r	.	2ryy	8b\	-mi-	2ryy	2ryy
.	.	.	.	.	.	8g\	-coſ	.	.
.	.	.	8G\	Ini-	.	8ff\	ini-	.	.
.	.	.	8G\	.	.	8ff\	.	.	.
=112	=112	=112	=112	=112	=112	=112	=112	=112	=112
2ryy	2ryy	2ryy	8C/	-mi-	2ryy	8ee\	-mi-	2ryy	2ryy
.	.	.	8C/	-coſ	.	8cc\	-coſ	.	.
.	.	.	8c\	Ini-	.	8ee\	i-	.	.
.	.	.	8c\	.	.	8ee\	-ni-	.	.
=113	=113	=113	=113	=113	=113	=113	=113	=113	=113
2ryy	2ryy	2ryy	4F\	-mi-	2ryy	8ff\L	-mi-	2ryy	2ryy
.	.	.	.	.	.	8dd\J	.	.	.
.	.	.	(8E\L	-cos	.	8ee\L	-coſ	.	.
.	.	.	8F\J)	.	.	8ff\J	.	.	.
=114	=114	=114	=114	=114	=114	=114	=114	=114	=114
2ryy	2ryy	2ryy	4G\	.	2ryy	4ee\	su-	2ryy	2ryy
.	.	.	4GG/	.	.	4dd\	.	.	.
=115	=115	=115	=115	=115	=115	=115	=115	=115	=115
2ryy	2ryy	2ryy	4C/	os	2ryy	4cc\	-os	2ryy	2ryy
!	!	!	!	!	!	!LO:TX:a:t=problem:podwójna kreska taktowa\npodwójnie przekreślona	!	!	!
.	.	.	4r	.	.	4r	.	.	.
!	!	!	!LO:LB:g=original	!	!	!LO:PB:g=original	!	!	!
=116||	=116||	=116||	=116||	=116||	=116||	=116||	=116||	=116||	=116||
*M2/4	*M2/4	*M2/4	*M2/4	*	*M2/4	*M2/4	*	*M2/4	*M2/4
!	!	!	!	!	!	!LO:TX:a:t=Dispersit Tacet	!	!	!
!	!	!	!LO:TX:a:t=Dispersit Tacet	!	!	!LO:TX:a:t=problem:ponieważ ze względu na wybrakowanie źródła nie jestem w stanie stwierdzić, jak długi był "Dispersit- przyjmuję jeden takt	!	!	!
2ryy	2ryy	2ryy	2ryy	.	2ryy	2r	.	2ryy	2ryy
=117||	=117||	=117||	=117||	=117||	=117||	=117||	=117||	=117||	=117||
!	!	!	!LO:TX:a:t=All(egr)o'	!	!	!LO:TX:a:t=All(egr)o'	!	!	!
!	!	!	!LO:N:vis=00	!	!	!LO:N:vis=00	!	!	!
2ryy	2ryy	2ryy	0r	.	2ryy	0r	.	2ryy	2ryy
=118	=118	=118	=118	=118	=118	=118	=118	=118	=118
2ryy	2ryy	2ryy	.	.	2ryy	.	.	2ryy	2ryy
=119	=119	=119	=119	=119	=119	=119	=119	=119	=119
2ryy	2ryy	2ryy	.	.	2ryy	.	.	2ryy	2ryy
=120	=120	=120	=120	=120	=120	=120	=120	=120	=120
2ryy	2ryy	2ryy	.	.	2ryy	.	.	2ryy	2ryy
=121	=121	=121	=121	=121	=121	=121	=121	=121	=121
!	!	!	!LO:N:vis=00	!	!	!LO:N:vis=00	!	!	!
2ryy	2ryy	2ryy	0r	.	2ryy	0r	.	2ryy	2ryy
=122	=122	=122	=122	=122	=122	=122	=122	=122	=122
2ryy	2ryy	2ryy	.	.	2ryy	.	.	2ryy	2ryy
=123	=123	=123	=123	=123	=123	=123	=123	=123	=123
2ryy	2ryy	2ryy	.	.	2ryy	.	.	2ryy	2ryy
=124	=124	=124	=124	=124	=124	=124	=124	=124	=124
2ryy	2ryy	2ryy	.	.	2ryy	.	.	2ryy	2ryy
=125	=125	=125	=125	=125	=125	=125	=125	=125	=125
!	!	!	!LO:N:vis=00	!	!	!LO:N:vis=00	!	!	!
2ryy	2ryy	2ryy	0r	.	2ryy	0r	.	2ryy	2ryy
=126	=126	=126	=126	=126	=126	=126	=126	=126	=126
2ryy	2ryy	2ryy	.	.	2ryy	.	.	2ryy	2ryy
=127	=127	=127	=127	=127	=127	=127	=127	=127	=127
2ryy	2ryy	2ryy	.	.	2ryy	.	.	2ryy	2ryy
=128	=128	=128	=128	=128	=128	=128	=128	=128	=128
2ryy	2ryy	2ryy	.	.	2ryy	.	.	2ryy	2ryy
=129	=129	=129	=129	=129	=129	=129	=129	=129	=129
!	!	!	!LO:N:vis=00	!	!	!	!	!	!
2ryy	2ryy	2ryy	0r	.	2ryy	4r	.	2ryy	2ryy
.	.	.	.	.	.	8r	.	.	.
.	.	.	.	.	.	(8gg\	Glo-	.	.
=130	=130	=130	=130	=130	=130	=130	=130	=130	=130
2ryy	2ryy	2ryy	.	.	2ryy	4cc\)	-ri-	2ryy	2ryy
.	.	.	.	.	.	8cc\	-a	.	.
.	.	.	.	.	.	8aa\	.	.	.
=131	=131	=131	=131	=131	=131	=131	=131	=131	=131
2ryy	2ryy	2ryy	.	.	2ryy	4gg\	Pa-	2ryy	2ryy
.	.	.	.	.	.	8gg\	-tri	.	.
.	.	.	.	.	.	8ff\	et	.	.
=132	=132	=132	=132	=132	=132	=132	=132	=132	=132
2ryy	2ryy	2ryy	.	.	2ryy	8ee\L	fi-	2ryy	2ryy
.	.	.	.	.	.	16dd\L	.	.	.
.	.	.	.	.	.	16cc\JJ	.	.	.
.	.	.	.	.	.	16b\LL	.	.	.
.	.	.	.	.	.	16a\JJ	-li-	.	.
.	.	.	.	.	.	16g\LL	.	.	.
.	.	.	.	.	.	16f\JJ	.	.	.
=133	=133	=133	=133	=133	=133	=133	=133	=133	=133
!	!	!	!LO:N:vis=00	!	!	!	!	!	!
2ryy	2ryy	2ryy	0r	.	2ryy	4e/	-o	2ryy	2ryy
.	.	.	.	.	.	8cc\	et	.	.
.	.	.	.	.	.	8cc\	spi-	.	.
=134	=134	=134	=134	=134	=134	=134	=134	=134	=134
2ryy	2ryy	2ryy	.	.	2ryy	16dd\LL	-ri-	2ryy	2ryy
.	.	.	.	.	.	16b\J	.	.	.
.	.	.	.	.	.	8cc\J	.	.	.
.	.	.	.	.	.	16dd\LL	-tu-	.	.
.	.	.	.	.	.	16b\JJ	.	.	.
.	.	.	.	.	.	16cc\LL	-i	.	.
.	.	.	.	.	.	16gg\JJ	.	.	.
=135	=135	=135	=135	=135	=135	=135	=135	=135	=135
2ryy	2ryy	2ryy	.	.	2ryy	4ff\	San-	2ryy	2ryy
.	.	.	.	.	.	8ee\	-cto	.	.
.	.	.	.	.	.	8cc\	spi-	.	.
=136	=136	=136	=136	=136	=136	=136	=136	=136	=136
2ryy	2ryy	2ryy	.	.	2ryy	(16dd\LL	-ri-	2ryy	2ryy
.	.	.	.	.	.	16b\J)	.	.	.
.	.	.	.	.	.	8cc\J	.	.	.
.	.	.	.	.	.	16dd\LL	-tu-	.	.
.	.	.	.	.	.	16b\JJ	.	.	.
.	.	.	.	.	.	16cc\LL	-i	.	.
.	.	.	.	.	.	16gg\JJ	.	.	.
=137	=137	=137	=137	=137	=137	=137	=137	=137	=137
!	!	!	!LO:N:vis=0	!	!	!	!	!	!
2ryy	2ryy	2ryy	1r	.	2ryy	4ff\	San-	2ryy	2ryy
.	.	.	.	.	.	4ee\	-cto	.	.
=138	=138	=138	=138	=138	=138	=138	=138	=138	=138
2ryy	2ryy	2ryy	.	.	2ryy	8dd\L	Sanc-	2ryy	2ryy
.	.	.	.	.	.	8a\J	.	.	.
.	.	.	.	.	.	8qqcc/	.	.	.
.	.	.	.	.	.	4b\	.	.	.
=139	=139	=139	=139	=139	=139	=139	=139	=139	=139
2ryy	2ryy	2ryy	4r	.	2ryy	4cc\	-to	2ryy	2ryy
.	.	.	8r	.	.	8r	.	.	.
.	.	.	[8c\	Si-	.	8gg\	Si-	.	.
=140	=140	=140	=140	=140	=140	=140	=140	=140	=140
2ryy	2ryy	2ryy	4c\]	.	2ryy	4cc\	.	2ryy	2ryy
.	.	.	4F\	-cut	.	4aa\	-cut	.	.
=141	=141	=141	=141	=141	=141	=141	=141	=141	=141
2ryy	2ryy	2ryy	8C\L	e-	2ryy	4.gg\	e-	2ryy	2ryy
.	.	.	8D\J	.	.	.	.	.	.
.	.	.	8E\	.	.	.	.	.	.
.	.	.	8G\	-rat	.	8ff\	-rat	.	.
!	!	!	!	!	!	!LO:LB:g=original	!	!	!
=142	=142	=142	=142	=142	=142	=142	=142	=142	=142
2ryy	2ryy	2ryy	8c\	in	2ryy	8ee\	in	2ryy	2ryy
.	.	.	8F\	prin-	.	16dd\LL	prin-	.	.
.	.	.	.	.	.	16cc\JJ	.	.	.
.	.	.	8G\	-ci-	.	16b\LL	-ci-	.	.
.	.	.	.	.	.	16a\JJ	.	.	.
.	.	.	8GG/	-pi-	.	16g\LL	-pi-	.	.
.	.	.	.	.	.	16f\JJ	-o	.	.
=143	=143	=143	=143	=143	=143	=143	=143	=143	=143
2ryy	2ryy	2ryy	4C/	-o	2ryy	4e/	et	2ryy	2ryy
.	.	.	8r	.	.	8r	.	.	.
.	.	.	8G\	et	.	8dd\	nunc	.	.
=144	=144	=144	=144	=144	=144	=144	=144	=144	=144
2ryy	2ryy	2ryy	8C\	nunc	2ryy	8ee\	.	2ryy	2ryy
.	.	.	8D\	et	.	8ee\	et	.	.
.	.	.	8E\	nunc	.	8ee\	nunc	.	.
.	.	.	8F\	et	.	8ee\	.	.	.
=145	=145	=145	=145	=145	=145	=145	=145	=145	=145
2ryy	2ryy	2ryy	8G\	sem-	2ryy	8dd\	et	2ryy	2ryy
.	.	.	8G\	-per	.	8dd\	sem-	.	.
.	.	.	8r	.	.	8r	.	.	.
.	.	.	16G\	et	.	16dd\	-per	.	.
.	.	.	16G\	in	.	16dd\	et in	.	.
!	!	!	!LO:LB:g=original	!	!	!	!	!	!
=146	=146	=146	=146	=146	=146	=146	=146	=146	=146
2ryy	2ryy	2ryy	8C\	Sae-	2ryy	8ee\	Sae-	2ryy	2ryy
.	.	.	16D\	-cu-	.	16ee\	-cu-	.	.
.	.	.	16D\	-la	.	16ee\	-la	.	.
.	.	.	8E\	Sae-	.	8ee\	Sae-	.	.
.	.	.	8F\	-cu-	.	8ee\	-cu-	.	.
=147	=147	=147	=147	=147	=147	=147	=147	=147	=147
2ryy	2ryy	2ryy	8G\	-lo-	2ryy	8dd\	-lo-	2ryy	2ryy
.	.	.	8G\	-rum	.	8dd\	-ru(m)	.	.
.	.	.	8r	.	.	8r	.	.	.
.	.	.	8E\	a-	.	8cc\	a-	.	.
=148	=148	=148	=148	=148	=148	=148	=148	=148	=148
2ryy	2ryy	2ryy	8F\L	.	2ryy	8a\L	.	2ryy	2ryy
.	.	.	8E\	.	.	16b\L	.	.	.
.	.	.	.	.	.	16cc\JJ	.	.	.
.	.	.	8F\	.	.	4dd\	.	.	.
.	.	.	8D\J	.	.	.	.	.	.
=149	=149	=149	=149	=149	=149	=149	=149	=149	=149
2ryy	2ryy	2ryy	8G\L	.	2ryy	8b\L	.	2ryy	2ryy
.	.	.	8F\	.	.	16cc\L	.	.	.
.	.	.	.	.	.	16dd\JJ	.	.	.
.	.	.	8G\	.	.	4ee\	.	.	.
.	.	.	8E\J	.	.	.	.	.	.
=150	=150	=150	=150	=150	=150	=150	=150	=150	=150
2ryy	2ryy	2ryy	8A\L	.	2ryy	8cc\L	.	2ryy	2ryy
.	.	.	8G\	.	.	16dd\L	.	.	.
.	.	.	.	.	.	16ee\JJ	.	.	.
.	.	.	8A\	.	.	4ff\	.	.	.
.	.	.	8F\J	.	.	.	.	.	.
=151	=151	=151	=151	=151	=151	=151	=151	=151	=151
2ryy	2ryy	2ryy	8G\L	.	2ryy	4dd\	.	2ryy	2ryy
.	.	.	8F\J	.	.	.	.	.	.
.	.	.	8E\L	-men	.	8ee\L	-men	.	.
.	.	.	8F\J	.	.	8ff\J	.	.	.
=152	=152	=152	=152	=152	=152	=152	=152	=152	=152
2ryy	2ryy	2ryy	4G\	a-	2ryy	4ee\	a-	2ryy	2ryy
.	.	.	4GG/	.	.	4dd\	.	.	.
=153	=153	=153	=153	=153	=153	=153	=153	=153	=153
2ryy	2ryy	2ryy	4C/	-men	2ryy	4cc\	-men	2ryy	2ryy
.	.	.	4r	.	.	4r	.	.	.
==	==	==	==	==	==	==	==	==	==
*-	*-	*-	*-	*-	*-	*-	*-	*-	*-
!!!system-decoration: [(g1)][(g2)][(g3)]{g4}
!!!ENC: Anna Matuszewska
!!!END: 2020-08-10
